X:67
T:GAYLYYT2- We're gayly yet (for 2nd part)
N:from single sheet song with music
Q:1/4=160
L:1/8
M:9/8
K:D mixolydian
D|G2gd2Bd2B|G2gd2Bd2B|G2g d c B c d e|=f2AA2Bc2:|\
B/A/|G2G B A B c2 B/A/|G A G B A B c2 B/A/|G A G B A B c d e|\
=f2A A A B c2:|]

